!!!!SEGMENT: pl-sa--303-a-vii-63--003_lechleitner-ferdinand-simon--o-beata-scholastica-tutti-chorus.krn
!!!cenid: 17xx:405
!!!COM: Lechleitner, Ferdinand Simon
!!!COM-rismid: pe30001903
!!!CDT: ~1700-~1800
!!!CNT:
!!!OPR: O Beata Scholastica
!!!OTL: Tutti Chorus
!!!OMV: 003
!!!PDT:
!!!AGN: Sacred
!!!SMS-siglum: PL-SA
!!!SMS-shelfmark: 303/A VII 63
!!!SMS-shelfwork: 001-003 M
!!!NIFC-rismid: 1001039510
!!!URL-scan: http://bc.bdsandomierz.pl/dlibra/publication/1608/edition/1576/content
!!!ONB-nifc: UWAGA: części: Alto Solo (O Beata Scholastica), Columba Christi unica, Tutti Chorus (O Beata Scholastica)
!!!key:
**kern	**fba	**kern	**dynam	**kern	**dynam	**kern	**dynam	**kern	**text	**kern	**text	**kern	**text	**kern	**text	**kern	**dynam	**kern	**dynam
*part10	*	*part9	*part9	*part8	*part8	*part7	*part7	*part6	*part6	*part5	*part5	*part4	*part4	*part3	*part3	*part2	*part2	*part1	*part1
*staff10	*	*staff9	*	*staff8	*	*staff7	*	*staff6	*staff6	*staff5	*staff5	*staff4	*staff4	*staff3	*staff3	*staff2	*	*staff1	*
*Iorgan	*	*Iviola	*	*Ivioln	*	*Ivioln	*	*Iempty	*	*Itenor	*	*Ialto	*	*Ivox	*	*Iempty	*	*Iempty	*
*I"Organo.	*	*I"Alto Viola Obligata.	*	*I"Violino 2.do	*	*I"Violino 1.mo	*	*I"Baſso.	*	*I"Tenore.	*	*I"Alto.	*	*I"Canto.	*	*I"Clarino 2.do	*	*I"Clarino 1.mo	*
*I'org	*	*I'vl	*	*I'vn 2	*	*I'vn 1	*	*I'B	*	*I'T	*	*I'A	*	*I'S	*	*I'Clar 2	*	*I'Clar 1	*
*clefF4	*	*clefC3	*	*clefG2	*	*clefG2	*	*clefF4	*	*clefC4	*	*clefC3	*	*clefC1	*	*clefG2	*	*clefG2	*
*k[]	*	*k[]	*	*k[]	*	*k[]	*	*k[]	*	*k[]	*	*k[]	*	*k[]	*	*k[]	*	*k[]	*
*C:	*	*C:	*	*C:	*	*C:	*	*C:	*	*C:	*	*C:	*	*C:	*	*C:	*	*C:	*
*M2/2	*	*M2/2	*	*M2/2	*	*M2/2	*	*M2/2	*	*M2/2	*	*M2/2	*	*M2/2	*	*M2/2	*	*M2/2	*
*met(c|)	*	*met(c|)	*	*met(c|)	*	*met(c|)	*	*met(c|)	*	*met(c|)	*	*met(c|)	*	*met(c|)	*	*met(c|)	*	*met(c|)	*
=1	=1	=1	=1	=1	=1	=1	=1	=1	=1	=1	=1	=1	=1	=1	=1	=1	=1	=1	=1
!LO:TX:b:t=Chorus	!	!LO:TX:b:t=Chorus.	!	!LO:TX:b:t=Chorus.	!	!LO:TX:b:t=Chorus.	!	!	!	!	!	!	!	!	!	!LO:TX:b:t=Chorus.	!	!LO:TX:b:rj:t=Chorus.	!
!LO:TX:a:t=Tutti	!	!LO:TX:a:t=Tutti	!	!LO:TX:a:i:t=Solo	!	!LO:TX:a:t=Tutti	!	!LO:TX:a:t=Tutti	!	!LO:TX:a:t=Tutti	!	!LO:TX:rj:a:t=Tutti	!	!LO:TX:a:t=Tutti	!	!LO:TX:a:t=Tutti	!	!LO:TX:a:t=Tutti	!
4C/	.	1r	.	1r	.	1r	.	4r	.	4r	.	4r	.	4r	.	4r	.	4r	.
8c\L	.	.	.	.	.	.	.	8c\	O!	8c\	O!	8g\	O	8ee\	O!	8ee\L	.	8gg\L	.
8B\J	6	.	.	.	.	.	.	8B\	Be-	8d\	Be-	8b\	Be-	8gg\	Be-	8dd\J	.	8gg\J	.
8c\L	.	.	.	.	.	.	.	(8c\L	-a-	(8c\L	-a-	(8g\L	-a-	(8ee\L	-a-	8cc\L	.	8ee\L	.
8G\J	.	.	.	.	.	.	.	8G\J)	.	8B\J)	.	8b\J)	.	8gg\J)	.	8dd\J	.	8gg\J	.
8A\L	6	.	.	.	.	.	.	8A\	-ta	8c\	-ta	8a\	-ta	8ff\	-ta	8cc\L	.	8ff\L	.
8B\J	6	.	.	.	.	.	.	8B\	Scho-	8G/	Scho-	8g\	Scho-	8dd\	Scho-	8g\J	.	16ee\L	.
.	.	.	.	.	.	.	.	.	.	.	.	.	.	.	.	.	.	16dd\JJ	.
!	!	!	!	!	!	!	!	!	!	!LO:PB:g=original	!	!	!	!	!	!	!	!	!
=2	=2	=2	=2	=2	=2	=2-	=2	=2	=2	=2	=2	=2	=2	=2	=2	=2	=2	=2	=2
!LO:TX:a:t=P:mixed beam:problem	!	!	!	!	!	!	!	!	!	!	!	!	!	!	!	!	!	!	!
8c\L	.	4r	.	4r	.	4r	.	8.c\	-la-	8.c\	-la-	8.g\	-la-	8.ee\	-la-	8e/L	.	8cc\L	.
8C/	.	.	.	.	.	.	.	.	.	.	.	.	.	.	.	16e/L	.	16cc\L	.
.	.	.	.	.	.	.	.	16c\	-ſti-	16c\	-ſti-	16g\	-ſti-	16ee\	-ſti-	16e/JJ	.	16cc\JJ	.
!	!	!	!	!	!	!LO:TX:a:t=S&colon;	!	!	!	!	!	!	!	!	!	!	!	!	!
8C/	.	8r	.	16r	.	16r	.	4c\	-ca	4c\	-ca	4g\	-ca	4ee\	-ca	8e/	.	8cc\	.
.	.	.	.	16gg\LL	.	16gg\LL	.	.	.	.	.	.	.	.	.	.	.	.	.
!	!	!LO:TX:a:i:t=Solo	!	!	!	!	!	!	!	!	!	!	!	!	!	!	!	!	!
8C/J	.	8c/	.	16gg\	.	16gg\	.	.	.	.	.	.	.	.	.	8r	.	8r	.
.	.	.	.	16ee\JJ	.	16ee\JJ	.	.	.	.	.	.	.	.	.	.	.	.	.
!LO:TX:b:i:t=Solo	!	!	!	!	!	!	!	!	!	!	!	!	!	!	!	!	!	!	!
4C/	.	8c/L	.	16ee\LL	.	16ee\LL	.	2r	.	2r	.	2r	.	2r	.	2r	.	2r	.
.	.	.	.	16gg\	.	16gg\	.	.	.	.	.	.	.	.	.	.	.	.	.
.	.	8c/	.	16gg\	.	16gg\	.	.	.	.	.	.	.	.	.	.	.	.	.
.	.	.	.	16cc\JJ	.	16ee\JJ	.	.	.	.	.	.	.	.	.	.	.	.	.
8r	.	8c/	.	4cc\	.	16ee\LL	.	.	.	.	.	.	.	.	.	.	.	.	.
.	.	.	.	.	.	16gg\	.	.	.	.	.	.	.	.	.	.	.	.	.
8C/	.	8c/J	.	.	.	16gg\	.	.	.	.	.	.	.	.	.	.	.	.	.
.	.	.	.	.	.	16cc\JJ	.	.	.	.	.	.	.	.	.	.	.	.	.
=3	=3	=3	=3	=3	=3	=3	=3	=3	=3	=3	=3	=3	=3	=3-	=3	=3	=3	=3	=3
4C/	.	8r	.	16r	.	4cc\	.	0r	.	0r	.	0r	.	0r	.	0r	.	0r	.
.	.	.	.	16gg\LL	.	.	.	.	.	.	.	.	.	.	.	.	.	.	.
.	.	8c/L	.	16gg\	.	.	.	.	.	.	.	.	.	.	.	.	.	.	.
.	.	.	.	16ee\JJ	.	.	.	.	.	.	.	.	.	.	.	.	.	.	.
8r	.	8c/	.	16ee\LL	.	4r	.	.	.	.	.	.	.	.	.	.	.	.	.
.	.	.	.	16gg\	.	.	.	.	.	.	.	.	.	.	.	.	.	.	.
8C/	-7	8c/J	.	16gg\	.	.	.	.	.	.	.	.	.	.	.	.	.	.	.
.	.	.	.	16b-X\JJ	.	.	.	.	.	.	.	.	.	.	.	.	.	.	.
4C/	.	8r	.	4b-/	.	16r	.	.	.	.	.	.	.	.	.	.	.	.	.
.	.	.	.	.	.	16gg\LL	.	.	.	.	.	.	.	.	.	.	.	.	.
.	.	8c/L	.	.	.	16gg\	.	.	.	.	.	.	.	.	.	.	.	.	.
.	.	.	.	.	.	16ee\JJ	.	.	.	.	.	.	.	.	.	.	.	.	.
8r	.	8c/	.	4r	.	16ee\LL	.	.	.	.	.	.	.	.	.	.	.	.	.
.	.	.	.	.	.	16gg\	.	.	.	.	.	.	.	.	.	.	.	.	.
8C/	-7	8c/J	.	.	.	16gg\	.	.	.	.	.	.	.	.	.	.	.	.	.
.	.	.	.	.	.	16b-X\JJ	.	.	.	.	.	.	.	.	.	.	.	.	.
=4	=4	=4	=4	=4	=4	=4	=4	=4	=4	=4	=4	=4	=4	=4	=4	=4	=4	=4	=4
!	!	!	!	!	!	!LO:TX:a:t=P:mixed beam:problem	!	!	!	!	!	!	!	!	!	!	!	!	!
4F\	.	8r	.	2r	.	16a/LL	.	.	.	.	.	.	.	.	.	.	.	.	.
.	.	.	.	.	.	16aa\	.	.	.	.	.	.	.	.	.	.	.	.	.
.	.	8c\L	.	.	.	16aa\	.	.	.	.	.	.	.	.	.	.	.	.	.
.	.	.	.	.	.	16ff#X\JJ	.	.	.	.	.	.	.	.	.	.	.	.	.
8r	.	8d\	.	.	.	16ff#\LL	.	.	.	.	.	.	.	.	.	.	.	.	.
.	.	.	.	.	.	16aa\	.	.	.	.	.	.	.	.	.	.	.	.	.
8D/	#	8d\J	.	.	.	16aa\	.	.	.	.	.	.	.	.	.	.	.	.	.
.	.	.	.	.	.	16cc\JJ	.	.	.	.	.	.	.	.	.	.	.	.	.
4D/	.	8r	.	16r	.	4cc\	.	.	.	.	.	.	.	.	.	.	.	.	.
.	.	.	.	16aa\LL	.	.	.	.	.	.	.	.	.	.	.	.	.	.	.
.	.	8d\L	.	16aa\	.	.	.	.	.	.	.	.	.	.	.	.	.	.	.
.	.	.	.	16ff#X\JJ	.	.	.	.	.	.	.	.	.	.	.	.	.	.	.
8r	.	8d\	.	16ff#\LL	.	4r	.	.	.	.	.	.	.	.	.	.	.	.	.
.	.	.	.	16aa\	.	.	.	.	.	.	.	.	.	.	.	.	.	.	.
8D/	7 #	8d\J	.	16aa\	.	.	.	.	.	.	.	.	.	.	.	.	.	.	.
.	.	.	.	16cc\JJ	.	.	.	.	.	.	.	.	.	.	.	.	.	.	.
=5	=5	=5	=5	=5	=5	=5	=5	=5	=5	=5	=5	=5-	=5	=5	=5	=5	=5	=5	=5
4D/	7 #	8r	.	4cc\	.	16r	.	1r	.	1r	.	1r	.	1r	.	1r	.	1r	.
.	.	.	.	.	.	16aa\LL	.	.	.	.	.	.	.	.	.	.	.	.	.
.	.	8d\L	.	.	.	16aa\	.	.	.	.	.	.	.	.	.	.	.	.	.
.	.	.	.	.	.	16ff#X\JJ	.	.	.	.	.	.	.	.	.	.	.	.	.
8r	.	8d\	.	4r	.	16ff#\LL	.	.	.	.	.	.	.	.	.	.	.	.	.
.	.	.	.	.	.	16aa\	.	.	.	.	.	.	.	.	.	.	.	.	.
8D/	7 #	8d\J	.	.	.	16aa\	.	.	.	.	.	.	.	.	.	.	.	.	.
.	.	.	.	.	.	16cc\JJ	.	.	.	.	.	.	.	.	.	.	.	.	.
8G\L	.	8d\L	.	16r	.	16b\LL	.	.	.	.	.	.	.	.	.	.	.	.	.
.	.	.	.	16gg\LL	.	16gg\	.	.	.	.	.	.	.	.	.	.	.	.	.
8G\	.	8d\	.	16gg\	.	16gg\	.	.	.	.	.	.	.	.	.	.	.	.	.
.	.	.	.	16dd\JJ	.	16dd\JJ	.	.	.	.	.	.	.	.	.	.	.	.	.
!	!	!	!	!	!	!LO:LB:g=original	!	!	!	!	!	!	!	!	!	!	!	!	!
8B\	.	8g\	.	16dd\LL	.	16dd\LL	.	.	.	.	.	.	.	.	.	.	.	.	.
.	.	.	.	16gg\	.	16gg\	.	.	.	.	.	.	.	.	.	.	.	.	.
8G\J	.	8g\J	.	16gg\	.	16gg\	.	.	.	.	.	.	.	.	.	.	.	.	.
.	.	.	.	16b\JJ	.	16dd\JJ	.	.	.	.	.	.	.	.	.	.	.	.	.
!	!	!LO:LB:g=original	!	!	!	!	!	!LO:LB:g=original	!	!	!	!	!	!LO:LB;g=original	!	!	!	!	!
=6	=6	=6	=6	=6	=6	=6	=6	=6-	=6	=6-	=6	=6	=6	=6	=6	=6	=6	=6	=6
!LO:TX:a:t=P:mixed beam:problem	!	!	!	!LO:TX:a:t=Tutti	!	!	!	!	!	!	!	!	!	!	!	!	!	!	!
8c\L	.	4g\	.	16cc\LL	.	16ee\LL	.	4r	.	4r	.	4r	.	4r	.	4r	.	4r	.
.	.	.	.	16cc\	.	16cc\	.	.	.	.	.	.	.	.	.	.	.	.	.
8C/J	.	.	.	16ee\	.	16ee\	.	.	.	.	.	.	.	.	.	.	.	.	.
.	.	.	.	16gg\JJ	.	16gg\JJ	.	.	.	.	.	.	.	.	.	.	.	.	.
!	!	!	!	!LO:LB:g=original	!	!	!	!	!	!	!	!	!	!	!	!	!	!	!
!LO:TX:b:t=Tutti	!	!LO:TX:a:t=Tutti	!	!	!	!LO:TX:a:t=Tutti	!	!	!	!	!	!	!	!	!	!	!	!	!
*	*	*	*	*	*	*	*	*	*ij	*	*	*	*ij	*	*ij	*	*	*	*
8c\L	.	8g\L	.	16ee\LL	.	16ee\LL	.	8c\	O!	8c\	O!	8g\	O	8ee\	O!	8ee\L	.	8gg\L	.
.	.	.	.	16cc\	.	16cc\	.	.	.	.	.	.	.	.	.	.	.	.	.
8B\J	6	8g\J	.	16ee\	.	16ee\	.	8B\	Be-	8d\	Be-	8b\	Be-	8gg\	Be-	8dd\J	.	8gg\J	.
.	.	.	.	16gg\JJ	.	16gg\JJ	.	.	.	.	.	.	.	.	.	.	.	.	.
!LO:LB:g=original	!	!	!	!	!	!	!	!	!	!	!	!	!	!	!	!	!	!	!
8c\L	.	8g\L	.	8ee\L	.	8ee\L	.	(8c\L	-a-	(8c\L	-a-	(8g\L	-a-	(8ee\L	-a-	8cc\L	.	8ee\L	.
8G\J	.	8g\	.	8dd\J	.	8gg\J	.	8G\J)	.	8B\J)	.	8b\J)	.	8gg\J)	.	8dd\	.	8gg\	.
8A\L	6	8c\	.	16cc\LL	.	16ff\LL	.	8A\	-ta	8c\	-ta	8a\	-ta	8ff\	-ta	8cc\	.	8ff\	.
.	.	.	.	16ff\	.	16aa\	.	.	.	.	.	.	.	.	.	.	.	.	.
8B\J	6	8g\J	.	16ee\	.	16gg\	.	8B\	Scho-	8G/	Scho-	8g\	Scho-	8dd\	Scho-	8g\J	.	8dd\J	.
.	.	.	.	16dd\JJ	.	16ff\JJ	.	.	.	.	.	.	.	.	.	.	.	.	.
!	!	!	!	!	!	!	!	!	!	!	!	!	!	!	!	!	!	!LO:LB:g=original	!
=7	=7	=7	=7	=7	=7	=7	=7	=7	=7	=7	=7	=7	=7	=7	=7	=7	=7	=7	=7
!	!	!	!	!	!	!	!	!	!	!	!	!	!	!	!	!LO:TX:a:t=P:mixed beam:problem	!	!	!
4.c\	.	8.g\L	.	16cc\LL	.	16ee\LL	.	8.c\	-la-	8.c\	-la-	8.g\	-la-	8.ee\	-la-	8cc\L	.	8ee\L	.
.	.	.	.	16dd\	.	16ff\	.	.	.	.	.	.	.	.	.	.	.	.	.
.	.	.	.	16cc\	.	16ee\	.	.	.	.	.	.	.	.	.	16e/L	.	16cc\L	.
.	.	16g\Jk	.	16b\JJ	.	16dd\JJ	.	16c\	-ſti-	16d\	-ſti-	16g\	-ſti-	16dd\	-ſti-	16g/JJ	.	16dd\JJ	.
.	.	8g\L	.	16cc\LL	.	16cc\LL	.	8c,<\	-ca	8e,<\	-ca	8g\	-ca	8cc,<\	-ca	8cc\L	.	8ee\L	.
.	.	.	.	16ee\	.	16gg\	.	.	.	.	.	.	.	.	.	.	.	.	.
*	*	*	*	*	*	*	*	*	*Xij	*	*	*	*Xij	*	*Xij	*	*	*	*
!	!	!	!	!	!	!	!	!	!	!	!	!LO:LB:g=original	!	!	!	!	!	!	!
8c\	.	8g\J	.	16ee\	.	16gg\	.	8c\	te	8c\	te	8g\	te	8ee\	te	8ee\J	.	8gg\J	.
.	.	.	.	16ee\JJ	.	16gg\JJ	.	.	.	.	.	.	.	.	.	.	.	.	.
8B\L	6	8g\L	.	16dd\LL	.	16gg\LL	.	8B\	lau-	8d\	lau-	8g\	lau-	8dd\	lau-	8dd\L	.	16gg\LL	.
.	.	.	.	16dd\	.	16gg\	.	.	.	.	.	.	.	.	.	.	.	16gg\	.
8G\	.	8g\	.	16dd\	.	16gg\	.	8G\	-dant	8B\	-dant	8g\	-dant	(16ee\LL	-dant	16ee\L	.	16aa\	.
.	.	.	.	16dd\JJ	.	16gg\JJ	.	.	.	.	.	.	.	16dd\JJ)	.	16dd\JJ	.	16gg\JJ	.
8A\	7	8e\	.	16cc\LL	.	16gg\LL	.	8A\	pi-	(16A\LL	pi-	8g\	pi-	(16cc\LL	pi-	8cc\L	.	8gg\L	.
.	.	.	.	16cc\	.	16gg\	.	.	.	16c\JJ)	.	.	.	16ee\JJ)	.	.	.	.	.
8D\J	#	8f#X\J	.	16ff#X\	.	16aa\	.	8D/	-a	(16B\LL	-a	8f#X\	-a	(16dd\LL	-a	8dd\J	.	8ff#X\J	.
.	.	.	.	16ff#\JJ	.	16aa\JJ	.	.	.	16A\JJ)	.	.	.	16cc\JJ)	.	.	.	.	.
!	!	!	!	!	!	!	!	!	!	!LO:PB:g=original	!	!	!	!	!	!	!	!	!
=8	=8	=8	=8	=8	=8	=8	=8	=8	=8	=8	=8	=8	=8	=8	=8	=8	=8	=8	=8
!LO:TX:a:t=P:mixed beam:problem	!	!	!	!	!	!	!	!	!	!	!	!	!	!	!	!LO:TX:a:t=P:mixed beam:problem	!	!	!
8G\L	.	4d\	.	16gg\LL	.	16bb\LL	.	8.G\	can-	8.G/	can-	8.g\	can-	8.b\	can-	8dd\L	.	8gg\L	.
.	.	.	.	16gg\	.	16bb\	.	.	.	.	.	.	.	.	.	.	.	.	.
8GG/	.	.	.	16gg\	.	16bb\	.	.	.	.	.	.	.	.	.	16g/L	.	16dd\L	.
.	.	.	.	16dd\JJ	.	16gg\JJ	.	16G\	-ti-	16A/	-ti-	16g\	-ti-	16a\	-ti-	16g/JJ	.	16dd\JJ	.
8GG/	.	4r	.	16dd\LL	.	16gg\LL	.	8G\	-ca	8B\	-ca	8g\	-ca	8g,</	-ca,	8g/	.	4dd\	.
.	.	.	.	16gg\	.	16bb\	.	.	.	.	.	.	.	.	.	.	.	.	.
8GG/J	.	.	.	16gg\	.	16bb\	.	8r	.	8r	.	8r	.	8dd\	te	8r	.	.	.
.	.	.	.	16dd\JJ	.	16dd\JJ	.	.	.	.	.	.	.	.	.	.	.	.	.
!	!	!	!	!	!	!	!	!	!	!	!	!	!	!	!	!LO:LB:g=original	!	!	!
4GG/	.	8r	.	8b/L	.	8b/L	.	4r	.	8r	.	8r	.	16dd\LL	lau-	4r	.	16r	.
.	.	.	.	.	.	.	.	.	.	.	.	.	.	16ee\	.	.	.	16g/LL	.
!	!	!LO:TX:a:t=P:mixed beam:problem	!	!	!	!	!	!	!	!	!	!	!	!	!	!	!	!	!
.	.	8g\L	.	8g/J	.	8g/J	.	.	.	8d\	te	8g\	te	16dd\	.	.	.	16g/	.
.	.	.	.	.	.	.	.	.	.	.	.	.	.	16ee\JJ	.	.	.	16g/JJ	.
8r	.	8g\	.	4r	.	16r	.	8r	.	8d\	lau-	8g\	lau-	16dd\LL	.	16r	.	4g/	.
.	.	.	.	.	.	16dd\LL	.	.	.	.	.	.	.	16ee\	.	16g/LL	.	.	.
8G\	.	8G/J	.	.	.	16dd\	.	8G\	te	8B\	-dant	8g\	-dant	16dd\	.	16g/	.	.	.
.	.	.	.	.	.	16b\JJ	.	.	.	.	.	.	.	16ee\JJ	.	16g/JJ	.	.	.
!	!	!	!	!	!	!LO:LB:g=original	!	!	!	!	!	!	!	!	!	!	!	!	!
=9	=9	=9	=9	=9	=9	=9	=9	=9	=9	=9	=9	=9	=9	=9	=9	=9	=9	=9	=9
!LO:TX:a:t=P:mixed beam:problem	!	!	!	!	!	!	!	!	!	!	!	!	!	!	!	!	!	!	!
8G\L	.	8r	.	16r	.	16b\LL	.	8G\	lau-	8r	.	8r	.	16dd\LL	.	4g/	.	16r	.
.	.	.	.	16dd\LL	.	16dd\	.	.	.	.	.	.	.	16ee\	.	.	.	16g/LL	.
*	*	*	*	*	*	*	*	*	*	*	*	*	*ij	*	*	*	*	*	*
8GG/J	.	8g\	.	16dd\	.	16dd\	.	8GG/	-dant	8B\	te	8g\	te	16dd\	.	.	.	16g/	.
.	.	.	.	16b\JJ	.	16b\JJ	.	.	.	.	.	.	.	16ee\JJ	.	.	.	16g/JJ	.
!	!	!	!	!	!	!	!	!	!	!	!	!	!	!LO:LB:g=original	!	!	!	!	!
8r	.	8g\L	.	16b\LL	.	16g/LL	.	8r	.	8B\	lau-	8g\	lau-	16dd\LL	.	16r	.	8g/L	.
.	.	.	.	16dd\	.	16b/	.	.	.	.	.	.	.	16ee\	.	16g/LL	.	.	.
*	*	*	*	*	*	*	*	*	*ij	*	*	*	*	*	*	*	*	*	*
8G\	.	16g\L	.	16dd\	.	16b/	.	8G\	te	16B,<\	-dant	16g,<\	-dant	16dd\	.	16g/	.	16g/L	.
*	*	*	*	*	*	*	*	*	*	*	*ij	*	*	*	*	*	*	*	*
.	.	16g\JJ	.	16b\JJ	.	16g/JJ	.	.	.	16d\	te	16b\	te	16ee\JJ	.	16g/JJ	.	16g/JJ	.
!LO:TX:a:t=P:mixed beam:problem	!	!LO:TX:a:t=P:mixed beam:problem	!	!	!	!	!	!	!	!	!	!	!	!	!	!	!	!	!
8G\L	.	8g\L	.	16g/LL	.	16d/LL	.	8G\	lau-	8B\	lau-	8g\	lau-	16dd\LL	.	16g/LL	.	16g/LL	.
.	.	.	.	16b/	.	16g/	.	.	.	.	.	.	.	16ee\	.	16g/	.	16g/	.
8G\	.	16G\L	.	16b/	.	16g/	.	16G,<\	-dant	8B\	-dant	8g\	-dant	16dd\	.	16g/	.	16g/	.
.	.	16g\JJ	.	16g/JJ	.	16d/JJ	.	16G\	te	.	.	.	.	16ee\JJ	.	16g/JJ	.	16g/JJ	.
*	*	*	*	*	*	*	*	*	*Xij	*	*Xij	*	*Xij	*	*	*	*	*	*
!	!	!	!	!LO:LB:g=original	!	!	!	!LO:LB:g=original	!	!	!	!	!	!	!	!	!	!	!
8G\	.	8g\L	.	16d/LL	.	16B/LL	.	8G\	lau-	4r	.	8r	.	16dd\LL	.	8g/L	.	8g/L	.
.	.	.	.	16g/	.	16d/	.	.	.	.	.	.	.	16ee\	.	.	.	.	.
8GG/J	.	16g\L	.	16g/	.	16d/	.	8GG/	-dant	.	.	8g\	te	16dd\	.	16g/L	.	16g/L	.
.	.	16g\JJ	.	16d/JJ	.	16B/JJ	.	.	.	.	.	.	.	16ee\JJ	.	16g/JJ	.	16g/JJ	.
!	!	!	!	!	!	!	!	!	!	!	!	!LO:LB:g=original	!	!	!	!	!	!	!
=10	=10	=10	=10	=10	=10	=10	=10	=10	=10	=10	=10	=10	=10	=10	=10	=10	=10	=10	=10
!	!	!LO:TX:a:t=P:mixed beam:problem	!	!	!	!LO:TX:a:t=P:mixed beam:problem	!	!	!	!	!	!	!	!	!	!	!	!	!
8r	.	8g\L	.	4e/	.	16G/LL	.	8r	.	4r	.	16g\LL	lau-	8cc\	.	4g/	.	16e/LL	.
.	.	.	.	.	.	16gg\	.	.	.	.	.	16a\	.	.	.	.	.	16c/	.
!LO:TX:a:t=P:mixed beam:problem	!	!	!	!	!	!	!	!	!	!	!	!	!	!	!	!	!	!	!
*	*	*	*	*	*	*	*	*	*ij	*	*	*	*	*	*	*	*	*	*
8c\L	.	8G/J	.	.	.	16gg\	.	8c\	te	.	.	16g\	.	8cc\	-dant	.	.	16c/	.
.	.	.	.	.	.	16ee\JJ	.	.	.	.	.	16a\JJ	.	.	.	.	.	16c/JJ	.
8c\	.	8r	.	16r	.	16ee\LL	.	8c\	lau-	8r	.	16g\LL	.	8r	.	16r	.	4c/	.
.	.	.	.	16gg\LL	.	16gg\	.	.	.	.	.	16a\	.	.	.	16c/LL	.	.	.
8C/J	.	8g\	.	16gg\	.	16gg\	.	8C/	-dant	8c\	te	16g\	.	8ee\	te	16c/	.	.	.
.	.	.	.	16ee\JJ	.	16ee\JJ	.	.	.	.	.	16a\JJ	.	.	.	16c/JJ	.	.	.
!	!	!LO:LB:g=original	!	!	!	!	!	!	!	!	!	!	!	!	!	!	!	!LO:LB:g=original	!
!	!	!LO:TX:a:t=P:mixed beam:problem	!	!	!	!	!	!	!	!	!	!	!	!	!	!	!	!	!
8r	.	8g\L	.	16ee\LL	.	16cc\LL	.	8r	.	8c\	lau-	16g\LL	.	8ee\	lau-	4c/	.	16r	.
.	.	.	.	16gg\	.	16ee\	.	.	.	.	.	16a\	.	.	.	.	.	16c/LL	.
8c\	.	8G/J	.	16gg\	.	16ee\	.	8c\	te	8C/	-dant	16g\	.	8cc\	-dant	.	.	16c/	.
.	.	.	.	16ee\JJ	.	16cc\JJ	.	.	.	.	.	16a\JJ	.	.	.	.	.	16c/JJ	.
!LO:LB:g=original	!	!	!	!	!	!	!	!	!	!	!	!	!	!	!	!	!	!	!
8c\L	.	8r	.	16cc\LL	.	16g\LL	.	8c\	lau-	8r	.	16g\LL	.	8r	.	16r	.	16c/LL	.
.	.	.	.	16ee\	.	16cc\	.	.	.	.	.	16a\	.	.	.	16c/LL	.	16c/	.
*	*	*	*	*	*	*	*	*	*	*	*	*	*	*	*ij	*	*	*	*
16c\L	.	8g\	.	16ee\	.	16cc\	.	16c,<\	-dant	8c\	te	16g\	.	8ee\	te	16c/	.	16c/	.
16c\JJ	.	.	.	16cc\JJ	.	16g\JJ	.	16c\	te	.	.	16a\JJ	.	.	.	16c/JJ	.	16c/JJ	.
!	!	!	!	!	!	!	!	!	!	!LO:PB:g=original	!	!	!	!	!	!	!	!	!
=11	=11	=11	=11	=11	=11	=11	=11	=11	=11	=11	=11	=11	=11	=11	=11	=11	=11	=11	=11
!LO:TX:a:t=P:mixed beam:problem	!	!	!	!	!	!	!	!	!	!	!	!	!	!	!	!	!	!	!
8c\L	.	8g\L	.	16g/LL	.	16e/LL	.	8c\	lau-	8c\	lau-	16g\LL	.	8ee\	lau-	8c/L	.	8c/L	.
.	.	.	.	16cc/	.	16g/	.	.	.	.	.	16a\	.	.	.	.	.	.	.
8C/J	.	16g\L	.	16cc/	.	16g/	.	8C/	-dant	16c\	-dant	16g\	.	16ee\	-dant	16c/L	.	16c/L	.
*	*	*	*	*	*	*	*	*	*Xij	*	*ij	*	*	*	*	*	*	*	*
.	.	16g\JJ	.	16g/JJ	.	16e/JJ	.	.	.	16c\	te	16a\JJ	.	16ee\	te	16c/JJ	.	16c/JJ	.
!	!	!LO:TX:a:t=P:mixed beam:problem	!	!LO:TX:a:t=P:mixed beam:problem	!	!LO:TX:a:t=P:mixed beam:problem	!	!	!	!	!	!	!	!	!	!	!	!LO:TX:a:t=P:mixed beam:problem	!
8r	.	8g\L	.	16e/LL	.	16c/LL	.	8r	.	8c\	lau-	16g\LL	.	8ee\	lau-	8c/L	.	8c/L	.
.	.	.	.	16gg\	.	16gg\	.	.	.	.	.	16a\	.	.	.	.	.	.	.
8c\	.	8G/J	.	16gg\	.	16gg\	.	8c\	te	16C,</	-dant	16g\	.	16cc\	-dant	8e/J	.	8cc\J	.
*	*	*	*	*	*	*	*	*	*	*	*Xij	*	*	*	*	*	*	*	*
.	.	.	.	16ee\JJ	.	16ee\JJ	.	.	.	16c\	te	16a\JJ	.	16ee\	te	.	.	.	.
!	!	!	!	!	!	!	!	!	!	!	!	!	!	!	!	!LO:TX:a:t=P:mixed beam:problem	!	!	!
8B\L	6	8g\L	.	16dd\LL	.	16dd\LL	.	8B\	lau-	8d\	lau-	8g\	.	8dd\	lau-	8g\L	.	8gg\L	.
.	.	.	.	16gg\	.	16gg\	.	.	.	.	.	.	.	.	.	.	.	.	.
8G\J	.	8g\	.	16gg\	.	16gg\	.	8G\	-dant	(16e\LL	-dant	8g\	-dant	8b\	-dant	8dd\J	.	8gg\J	.
.	.	.	.	16b\JJ	.	16b\JJ	.	.	.	16d\JJ)	.	.	.	.	.	.	.	.	.
*	*	*	*	*	*	*	*	*	*	*	*	*	*	*	*Xij	*	*	*	*
8A\L	7	8g\	.	16cc\LL	.	16cc\LL	.	8A\	pi-	(16c\LL	pi-	8g\	pi-	(16a\LL	pi-	8cc\L	.	8gg\L	.
.	.	.	.	16aa\	.	16aa\	.	.	.	16e\JJ)	.	.	.	16cc\JJ)	.	.	.	.	.
8D\J	#	8f#X\J	.	16aa\	.	16aa\	.	8D/	-a	(16d\LL	-a	(16f#X\LL	-a	(16b\LL	-a	8dd\J	.	16ff#X\L	.
.	.	.	.	16ff#X\JJ	.	16ff#X\JJ	.	.	.	16c\JJ)	.	16e\JJ)	.	16a\JJ)	.	.	.	16ee\JJ	.
=12	=12	=12	=12	=12	=12	=12	=12	=12	=12	=12	=12	=12	=12	=12	=12	=12	=12	=12	=12
!	!	!	!	!	!	!	!	!	!	!	!	!	!	!	!	!LO:TX:a:t=P:mixed beam:problem	!	!	!
8G\L	.	4g\	.	16dd\LL	.	16dd\LL	.	8.G\	can-	8.B\	can-	8.d\	can-	8.g/	can-	8dd\L	.	8dd\L	.
.	.	.	.	16gg\	.	16gg\	.	.	.	.	.	.	.	.	.	.	.	.	.
8A\	6\	.	.	16gg\	.	16gg\	.	.	.	.	.	.	.	.	.	16g/L	.	16dd\L	.
.	.	.	.	16dd\JJ	.	16dd\JJ	.	16A\	-ti-	16A/	-ti-	16d\	-ti-	16g/	-ti-	16g/JJ	.	16dd\JJ	.
!	!	!	!	!	!	!LO:LB:g=original	!	!	!	!	!	!	!	!	!	!	!	!	!
!	!	!	!	!	!	!	!	!	!	!	!	!	!	!	!	!LO:TX:a:t=P:mixed beam:problem	!	!	!
8B\	6	8g\L	.	16dd\LL	.	16dd\LL	.	8B\	-ca	8G,</	-ca	8d,<\	-ca	8g/	-ca	8g/L	.	8dd\L	.
.	.	.	.	16gg\	.	16gg\	.	.	.	.	.	.	.	.	.	.	.	.	.
8G\J	.	8g\J	.	16gg\	.	16gg\	.	8G\	te	8B\	te	8g\	te	8dd\	te	8dd\J	.	8gg\J	.
.	.	.	.	16b\JJ	.	16b\JJ	.	.	.	.	.	.	.	.	.	.	.	.	.
!	!	!	!	!	!	!	!	!	!	!	!	!	!	!LO:LB:g=original	!	!LO:LB:g=original	!	!	!
!LO:TX:a:t=P:mixed beam:problem	!	!	!	!LO:TX:a:t=P:mixed beam:problem	!	!LO:TX:a:t=P:mixed beam:problem	!	!	!	!	!	!	!	!	!	!	!	!	!
8c\L	6_ 5_	8a\L	.	16a/LL	.	16a/LL	.	8c\	lau-	8e\	lau-	8g\	lau-	8ee\	lau-	8ee\L	.	8gg\L	.
.	.	.	.	16gg\	.	16gg\	.	.	.	.	.	.	.	.	.	.	.	.	.
8A\	.	16b\L	.	16gg\	.	16gg\	.	8A\	-dant	8e\	-dant	(16a\LL	-dant	8a\	-dant	16dd\L	.	16aa\L	.
.	.	16g\JJ	.	16cc\JJ	.	16cc\JJ	.	.	.	.	.	16g\JJ)	.	.	.	16cc\JJ	.	16gg\JJ	.
!	!	!	!	!	!	!	!	!LO:LB:g=original	!	!	!	!LO:LB:g=original	!	!	!	!	!	!	!
!	!	!	!	!	!	!LO:TX:a:t=P:mixed beam:problem	!	!	!	!	!	!	!	!	!	!	!	!	!
8d\	5 4	8g\L	.	16a/LL	.	16a/LL	.	8d\	can-	8.d\	can-	8g\	can-	8.aT\	can-	8.dd\L	.	8gg\L	.
.	.	.	.	16dd/	.	16ff#X\	.	.	.	.	.	.	.	.	.	.	.	.	.
8D\J	x #	8d\J	.	16dd/	.	16ff#\	.	8D/	-ti-	.	.	8f#X\	-ti-	.	.	.	.	8ff#X\J	.
.	.	.	.	16dd/JJ	.	16ff#\JJ	.	.	.	16d\	-ti-	.	.	16g/	-ti-	16dd\Jk	.	.	.
!	!	!	!	!LO:LB:g=original	!	!	!	!	!	!LO:PB:g=original	!	!	!	!	!	!	!	!	!
=13	=13	=13	=13	=13	=13	=13	=13	=13	=13	=13	=13	=13	=13	=13	=13	=13	=13	=13	=13
!	!	!	!	!	!	!LO:TX:b:t=Soli	!	!	!	!	!	!	!	!	!	!	!	!	!
!	!	!	!	!	!	!LO:TX:a:t=P:mixed beam:problem	!	!	!	!	!	!	!	!	!	!	!	!	!
8G\L	.	4d\	.	4b/	.	16g/LL	.	4G\	-ca	4d\	-ca	4g\	-ca	4g/	-ca	4dd\	.	4gg\	.
.	.	.	.	.	.	16gg\	.	.	.	.	.	.	.	.	.	.	.	.	.
!LO:TX:b:i:t=Solo	!	!	!	!	!	!	!	!	!	!	!	!	!	!	!	!	!	!	!
8A\	.	.	.	.	.	16gg\	.	.	.	.	.	.	.	.	.	.	.	.	.
.	.	.	.	.	.	16dd\JJ	.	.	.	.	.	.	.	.	.	.	.	.	.
8B\	.	4r	.	4r	.	16dd\LL	.	4r	.	4r	.	4r	.	4r	.	4r	.	4r	.
.	.	.	.	.	.	16gg\	.	.	.	.	.	.	.	.	.	.	.	.	.
8G\J	.	.	.	.	.	16gg\	.	.	.	.	.	.	.	.	.	.	.	.	.
.	.	.	.	.	.	16b\JJ	.	.	.	.	.	.	.	.	.	.	.	.	.
!	!	!LO:TX:a:i:t=Solo	!	!LO:TX:a:t=Solo	!	!	!	!	!	!	!	!	!	!	!	!	!	!	!
8C/L	.	2r	.	16r	.	4cc\	.	2r	.	2r	.	2r	.	2r	.	2r	.	2r	.
.	.	.	.	16gg\LL	.	.	.	.	.	.	.	.	.	.	.	.	.	.	.
8D/	.	.	.	16gg\	.	.	.	.	.	.	.	.	.	.	.	.	.	.	.
.	.	.	.	16ee\JJ	.	.	.	.	.	.	.	.	.	.	.	.	.	.	.
8E/	.	.	.	16ee\LL	.	4r	.	.	.	.	.	.	.	.	.	.	.	.	.
.	.	.	.	16gg\	.	.	.	.	.	.	.	.	.	.	.	.	.	.	.
8C/J	.	.	.	16gg\	.	.	.	.	.	.	.	.	.	.	.	.	.	.	.
.	.	.	.	16cc\JJ	.	.	.	.	.	.	.	.	.	.	.	.	.	.	.
=14	=14	=14	=14	=14	=14	=14	=14	=14-	=14	=14-	=14	=14-	=14	=14-	=14	=14-	=14	=14-	=14
8GG/L	.	16r	.	4dd\	.	16r	.	00r	.	00r	.	0r	.	0r	.	00r	.	00r	.
.	.	16b\LL	.	.	.	16gg\LL	.	.	.	.	.	.	.	.	.	.	.	.	.
8AA/	.	16b\	.	.	.	16gg\	.	.	.	.	.	.	.	.	.	.	.	.	.
.	.	16g\JJ	.	.	.	16dd\JJ	.	.	.	.	.	.	.	.	.	.	.	.	.
8BB/	.	16g\LL	.	4r	.	16dd\LL	.	.	.	.	.	.	.	.	.	.	.	.	.
.	.	16b\	.	.	.	16gg\	.	.	.	.	.	.	.	.	.	.	.	.	.
8GG/J	.	16b\	.	.	.	16gg\	.	.	.	.	.	.	.	.	.	.	.	.	.
.	.	16d\JJ	.	.	.	16b\JJ	.	.	.	.	.	.	.	.	.	.	.	.	.
8D\L	#	4d\	.	16r	.	16cc\LL	.	.	.	.	.	.	.	.	.	.	.	.	.
.	.	.	.	16aa\LL	.	16aa\	.	.	.	.	.	.	.	.	.	.	.	.	.
8E\	.	.	.	16aa\	.	16aa\	.	.	.	.	.	.	.	.	.	.	.	.	.
.	.	.	.	16ff#X\JJ	.	16ff#X\JJ	.	.	.	.	.	.	.	.	.	.	.	.	.
8F#X\	.	4r	.	16ff#\LL	.	16ff#\LL	.	.	.	.	.	.	.	.	.	.	.	.	.
.	.	.	.	16aa\	.	16aa\	.	.	.	.	.	.	.	.	.	.	.	.	.
8D\J	.	.	.	16aa\	.	16aa\	.	.	.	.	.	.	.	.	.	.	.	.	.
.	.	.	.	16cc\JJ	.	16cc\JJ	.	.	.	.	.	.	.	.	.	.	.	.	.
!LO:LB:g=original	!	!LO:LB:g=original	!	!	!	!	!	!	!	!	!	!	!	!	!	!	!	!	!
=15	=15	=15	=15	=15	=15	=15	=15	=15	=15	=15	=15	=15	=15	=15	=15	=15	=15	=15	=15
!	!	!	!	!LO:TX:a:t=P:mixed beam:problem	!	!	!	!	!	!	!	!	!	!	!	!	!	!	!
8G\L	.	16r	.	16b/LL	.	16b\LL	.	.	.	.	.	.	.	.	.	.	.	.	.
.	.	16d\LL	.	16gg\	.	16bb\	.	.	.	.	.	.	.	.	.	.	.	.	.
8A\	.	16d\	.	16gg\	.	16bb\	.	.	.	.	.	.	.	.	.	.	.	.	.
.	.	16d\JJ	.	16dd\JJ	.	16gg\JJ	.	.	.	.	.	.	.	.	.	.	.	.	.
8B\	.	8d\L	.	16dd\LL	.	16gg\LL	.	.	.	.	.	.	.	.	.	.	.	.	.
.	.	.	.	16gg\	.	16bb\	.	.	.	.	.	.	.	.	.	.	.	.	.
8G\J	.	8g\J	.	16gg\	.	16bb\	.	.	.	.	.	.	.	.	.	.	.	.	.
.	.	.	.	16b\JJ	.	16dd\JJ	.	.	.	.	.	.	.	.	.	.	.	.	.
!LO:TX:a:t=P:mixed beam:problem	!	!	!	!	!	!LO:TX:a:t=P:mixed beam:problem	!	!	!	!	!	!	!	!	!	!	!	!	!
8c\L	5	8g\L	.	16cc\LL	.	16ee\LL	.	.	.	.	.	.	.	.	.	.	.	.	.
.	.	.	.	16dd\	.	16ff#X\	.	.	.	.	.	.	.	.	.	.	.	.	.
8A\	.	8e\	.	16ee\	.	16gg\	.	.	.	.	.	.	.	.	.	.	.	.	.
.	.	.	.	16a\JJ	.	16a/JJ	.	.	.	.	.	.	.	.	.	.	.	.	.
8d\	4	8d\	.	8g/L	.	8b/L	.	.	.	.	.	.	.	.	.	.	.	.	.
8D/J	.#	8d\J	.	8f#X/J	.	16a/L	.	.	.	.	.	.	.	.	.	.	.	.	.
.	.	.	.	.	.	16g/JJ	.	.	.	.	.	.	.	.	.	.	.	.	.
!	!	!	!	!	!	!LO:LB:g=original	!	!	!	!	!	!	!	!	!	!	!	!	!
=16	=16	=16	=16	=16	=16	=16	=16	=16	=16	=16	=16	=16-	=16	=16-	=16	=16	=16	=16	=16
!	!	!	!	!	!	!	!	!	!	!	!	!LO:TX:a:t=Soli	!	!	!	!	!	!	!
4G\	.	8d\L	.	8g/L	.	8g/L	.	.	.	.	.	4r	.	4r	.	.	.	.	.
.	.	8f#X\	.	8f#X/	.	8f#X/	.	.	.	.	.	.	.	.	.	.	.	.	.
!	!	!	!	!	!	!	!	!	!	!	!	!	!	!LO:TX:a:t=Soli	!	!	!	!	!
4r	.	8g\	.	8g/	.	8g/	.	.	.	.	.	8g\	ad	8b\	ad	.	.	.	.
!	!	!	!	!	!	!	!	!	!	!	!	!	!	!LO:SIC:s=:v:cae-	!	!	!	!	!
.	.	8e\J	.	8e/J	.	8e/J	.	.	.	.	.	8g\	cae-	8b\	ce-	.	.	.	.
2r	.	8f#X\L	.	8f#X/L	.	8f#X/L	.	.	.	.	.	16f#X\LL	-le-	16a\LL	-le-	.	.	.	.
.	.	.	.	.	.	.	.	.	.	.	.	16g\	.	16b\	.	.	.	.	.
.	.	8e\	.	8e/	.	8e/	.	.	.	.	.	16f#\	.	16a\	.	.	.	.	.
.	.	.	.	.	.	.	.	.	.	.	.	16g\JJ	.	16b\JJ	.	.	.	.	.
.	.	8f#X\	.	8f#/	.	8f#/	.	.	.	.	.	16f#X\LL	.	16a\LL	.	.	.	.	.
.	.	.	.	.	.	.	.	.	.	.	.	16g\	.	16b\	.	.	.	.	.
.	.	8B\J	.	8B/J	.	8B/J	.	.	.	.	.	16f#\	.	16a\	.	.	.	.	.
.	.	.	.	.	.	.	.	.	.	.	.	16g\JJ	.	16b\JJ	.	.	.	.	.
=17-	=17	=17	=17	=17	=17	=17	=17	=17	=17	=17	=17	=17	=17	=17	=17	=17	=17	=17	=17
1r	.	4e\	.	4e/	.	4e/	.	.	.	.	.	16e\LL	.	16g\LL	.	.	.	.	.
.	.	.	.	.	.	.	.	.	.	.	.	16f#X\	.	16a\	.	.	.	.	.
.	.	.	.	.	.	.	.	.	.	.	.	16e\	.	16g\	.	.	.	.	.
.	.	.	.	.	.	.	.	.	.	.	.	16f#\JJ	.	16a\JJ	.	.	.	.	.
.	.	8r	.	8r	.	8r	.	.	.	.	.	16e\LL	.	16g\LL	.	.	.	.	.
.	.	.	.	.	.	.	.	.	.	.	.	16f#X\	.	16a\	.	.	.	.	.
.	.	8e\	.	8e/	.	8e/	.	.	.	.	.	16e\	.	16g\	.	.	.	.	.
.	.	.	.	.	.	.	.	.	.	.	.	16f#\JJ	.	16a\JJ	.	.	.	.	.
!	!	!	!	!LO:LB:g=original	!	!	!	!	!	!	!	!	!	!	!	!	!	!	!
.	.	(8B'/L	.	(8B'/L	.	(8B'/L	.	.	.	.	.	16d#X\LL	.	16f#X/LL	.	.	.	.	.
.	.	.	.	.	.	.	.	.	.	.	.	16e\JJ	.	16g/JJ	.	.	.	.	.
.	.	8B'/	.	8B'/	.	8B'/	.	.	.	.	.	(16f#X\LL	-ſtis	(16a\LL	-ſtis	.	.	.	.
.	.	.	.	.	.	.	.	.	.	.	.	16e\JJ)	.	16g\JJ)	.	.	.	.	.
.	.	8B'/	.	8B'/	.	8B'/	.	.	.	.	.	(16d#X\LL	re-	(16f#X/LL	re-	.	.	.	.
.	.	.	.	.	.	.	.	.	.	.	.	16e\JJ)	.	16g/JJ)	.	.	.	.	.
.	.	8B'/J)	.	8B'/J)	.	8B'/J)	.	.	.	.	.	(16f#X\LL	-gni	(16a\LL	-gni	.	.	.	.
.	.	.	.	.	.	.	.	.	.	.	.	16e\JJ)	.	16g\JJ)	.	.	.	.	.
=18-	=18	=18	=18	=18	=18	=18	=18	=18-	=18	=18-	=18	=18	=18	=18	=18	=18	=18	=18	=18
!LO:TX:a:i:t=Tutti	!	!	!	!LO:TX:a:t=P:mixed beam:problem	!	!LO:TX:a:t=P:mixed beam:problem	!	!	!	!	!	!	!	!	!	!	!	!	!
4r	.	(8B'/L	.	16B/LL	.	16B/LL	.	4r	.	4r	.	8d#X\	hor-	8f#X/	hor-	0r	.	0r	.
.	.	.	.	16bb\	.	16bb\	.	.	.	.	.	.	.	.	.	.	.	.	.
.	.	8B'/J)	.	16bb\	.	16bb\	.	.	.	.	.	8d#\	-tos	8f#/	-tos,	.	.	.	.
.	.	.	.	16ff#X\JJ	.	16ff#X\JJ	.	.	.	.	.	.	.	.	.	.	.	.	.
!	!	!	!	!	!	!	!	!	!	!	!	!LO:PB:g=original	!	!	!	!	!	!	!
!	!	!LO:TX:a:t=Tutti	!	!LO:TX:b:t=Tutti	!	!LO:TX:b:t=Tutti	!	!	!	!	!	!	!	!LO:TX:a:t=T.	!	!	!	!	!
8E\L	.	8g\L	.	16gg\LL	.	16gg\LL	.	8E\	ad	8e\	ad	8g\	ad	8g/	ad	.	.	.	.
.	.	.	.	16bb\	.	16bb\	.	.	.	.	.	.	.	.	.	.	.	.	.
!	!	!	!	!	!	!	!	!	!	!	!	!	!	!LO:SIC:s=:v:cae-	!	!	!	!	!
8E\J	.	8g\J	.	16bb\	.	16bb\	.	8E\	cae-	8e\	cae-	8g\	cae-	8b\	Coe-	.	.	.	.
.	.	.	.	16gg\JJ	.	16gg\JJ	.	.	.	.	.	.	.	.	.	.	.	.	.
!LO:TX:a:t=P:mixed beam:problem	!	!	!	!	!	!	!	!	!	!	!	!	!	!	!	!	!	!	!
8B\L	#	8f#X\L	.	16ff#\LL	.	16ff#X\LL	.	8B\	-le-	16d#X\LL	-le-	16f#X\LL	-le-	8b\	-le-	.	.	.	.
.	.	.	.	16bb\	.	16bb\	.	.	.	16e\	.	16g\	.	.	.	.	.	.	.
8BB/J	.	8b\J	.	16bb\	.	16bb\	.	8B\	-ſtis	16f#X\	.	16a\	.	16b\	-ſtis	.	.	.	.
.	.	.	.	16ff#\JJ	.	16ff#\JJ	.	.	.	16e\JJ	.	16g\JJ	.	16b\	cae-	.	.	.	.
!	!	!	!	!	!	!	!	!	!	!	!	!	!	!LO:LB:g=original	!	!	!	!	!
!	!	!LO:TX:a:t=P:mixed beam:problem	!	!	!	!	!	!	!	!	!	!	!	!	!	!	!	!	!
8r	.	8b\L	.	16ee\LL	.	16ee\LL	.	8r	.	16d#X\LL	.	16f#X\LL	.	8b\	-le-	.	.	.	.
.	.	.	.	16gg\	.	16gg\	.	.	.	16e\	.	16g\	.	.	.	.	.	.	.
8E\	n	8B/J	.	16gg\	.	16gg\	.	8E\	cae-	16f#X\	.	16a\	.	8b\	-ſtis	.	.	.	.
.	.	.	.	16ee\JJ	.	16ee\JJ	.	.	.	16e\JJ	.	16g\JJ	.	.	.	.	.	.	.
!	!	!LO:LB:g=original	!	!	!	!	!	!	!	!	!	!	!	!	!	!	!	!	!
=19	=19	=19	=19	=19	=19	=19	=19	=19	=19	=19	=19	=19	=19	=19	=19	=19	=19	=19	=19
8B\L	#	8r	.	16dd#X\LL	.	16dd#X\LL	.	8B\	-le-	16d#X\LL	.	16f#X\LL	.	8r	.	.	.	.	.
.	.	.	.	16ff#X\	.	16ff#X\	.	.	.	16e\	.	16g\	.	.	.	.	.	.	.
!	!	!LO:TX:a:t=P:mixed beam:problem	!	!	!	!	!	!	!	!	!	!	!	!	!	!	!	!	!
*	*	*	*	*	*	*	*	*	*	*	*	*	*	*	*ij	*	*	*	*
8B\J	.	8b\L	.	16ff#\	.	16ff#\	.	8B\	-ſtis	16f#X\	.	16a\	.	8b\	cae-	.	.	.	.
.	.	.	.	16dd#\JJ	.	16dd#\JJ	.	.	.	16e\JJ	.	16g\JJ	.	.	.	.	.	.	.
8r	.	8b\	.	16b\LL	.	16b\LL	.	8r	.	16d#X\LL	.	16f#X\LL	.	8b\	-le-	.	.	.	.
.	.	.	.	16ee\	.	16ee\	.	.	.	16e\	.	16g\	.	.	.	.	.	.	.
8E\	.	8B/J	.	16ee\	.	16ee\	.	8E\	cae-	16f#X\	.	16a\	.	8b\	-ſtis	.	.	.	.
*	*	*	*	*	*	*	*	*	*	*	*	*	*	*	*Xij	*	*	*	*
.	.	.	.	16b\JJ	.	16b\JJ	.	.	.	16e\JJ	.	16g\JJ	.	.	.	.	.	.	.
8B\L	7_ #_	8r	.	16b\LL	.	16b\LL	.	8B\	-le-	16d#X\LL	.	16f#X\LL	.	8r	.	.	.	.	.
.	.	.	.	16dd#X\	.	16dd#X\	.	.	.	16e\JJ	.	16g\	.	.	.	.	.	.	.
16B\L	.	8b\	.	16dd#\	.	16dd#\	.	8B\	-ſtis	(16f#X\LL	-ſtis	(16a\	-ſtis	8b\	cae-	.	.	.	.
16B\JJ	.	.	.	16b\JJ	.	16b\JJ	.	.	.	16e\JJ)	.	16g\JJ)	.	.	.	.	.	.	.
!	!	!	!	!	!	!	!	!	!	!LO:PB:g=original	!	!	!	!	!	!	!	!	!
8B\L	x #	8b\L	.	16f#X/LL	.	16f#X/LL	.	8B\	re-	(16d#X\LL	re-	(16f#X\LL	re-	8b\	-le-	.	.	.	.
.	.	.	.	16b/	.	16b/	.	.	.	16e\JJ)	.	16g\JJ)	.	.	.	.	.	.	.
8B\J	.	16a\L	.	16b/	.	16b/	.	8B\	-gni	(16f#X\LL	-gni	(16a\LL	-gni	8b\	-ſtis	.	.	.	.
.	.	16g\JJ	.	16f#/JJ	.	16f#/JJ	.	.	.	16e\JJ)	.	16g\JJ)	.	.	.	.	.	.	.
!LO:LB:g=original	!	!	!	!	!	!	!	!	!	!	!	!	!	!	!	!	!	!	!
=20	=20	=20	=20	=20	=20	=20	=20	=20	=20	=20	=20	=20	=20	=20	=20	=20	=20	=20	=20
!LO:TX:a:t=P:mixed beam:problem	!	!	!	!	!	!	!	!	!	!	!	!	!	!	!	!	!	!	!
8B\L	#	8f#X\L	.	16d#X/LL	.	16d#X/LL	.	8B\	hor-	8d#X\	hor-	8f#X\	hor-	8b\	hor-	1r	.	1r	.
.	.	.	.	16f#X/	.	16f#X/	.	.	.	.	.	.	.	.	.	.	.	.	.
8BB/J	.	8f#\J	.	16f#/	.	16f#/	.	8BB,</	-tos,	8d#,<\	-tos,	8f#,<\	-tos,	8b\	-tos	.	.	.	.
.	.	.	.	16d#X/JJ	.	16d#X/JJ	.	.	.	.	.	.	.	.	.	.	.	.	.
!	!	!	!	!	!	!	!	!LO:TX:a:t=Soli	!	!LO:TX:a:t=Soli	!	!LO:TX:a:i:t=Soli	!	!	!	!	!	!	!
8E\L	.	4r	.	8B/	.	8B/	.	8E\	duc	8B\	duc	8g\	duc	4r	.	.	.	.	.
!LO:TX:a:i:t=Solo	!	!	!	!	!	!	!	!	!	!	!	!	!	!	!	!	!	!	!
8G\J	.	.	.	8r	.	8r	.	8G\	te-	8B\	te-	8g\	te-	.	.	.	.	.	.
!	!	!	!	!	!	!	!	!LO:LB:g=original	!	!	!	!	!	!	!	!	!	!	!
8F#X\L	6	2r	.	2r	.	2r	.	8F#X\	-cum	8dn\	-cum	8a\	-cum	2r	.	.	.	.	.
8E\	.	.	.	.	.	.	.	8E\	pi-	8d\	pi-	8g\	pi-	.	.	.	.	.	.
8F#X\	.	.	.	.	.	.	.	8F#X\	-as	8A/	-as	8.a\	-as	.	.	.	.	.	.
8D\J	#	.	.	.	.	.	.	8D/	co-	8d\	co-	.	.	.	.	.	.	.	.
.	.	.	.	.	.	.	.	.	.	.	.	16a\	co-	.	.	.	.	.	.
!	!	!	!	!LO:PB:g=original	!	!LO:LB:g=original	!	!	!	!	!	!LO:PB:g=original	!	!	!	!	!	!	!
=21	=21	=21	=21	=21	=21	=21	=21	=21	=21	=21	=21	=21	=21	=21	=21	=21-	=21	=21-	=21
!LO:TX:a:t=P:mixed beam:problem	!	!	!	!	!	!	!	!	!	!	!	!	!	!	!	!	!	!	!
8G\L	.	4r	.	4r	.	4r	.	8G\	-hor-	8B\	-hor-	8b\	-hor-	4r	.	4r	.	4r	.
8GG/J	.	.	.	.	.	.	.	8G,<\	-tes	8G,</	-tes	8b,<\	-tes,	.	.	.	.	.	.
!LO:TX:b:t=Tutti	!	!	!	!	!	!	!	!	!	!	!	!	!	!	!	!	!	!	!
!LO:TX:a:t=P:mixed beam:problem	!	!	!	!	!	!	!	!	!	!	!	!LO:TX:a:t=T.	!	!	!	!	!	!	!
8C/L	.	8g\L	.	16r	.	16r	.	8c\	ad	8e\	ad	8g\	ad	8ee\	ad	8cc\L	.	8ee\L	.
.	.	.	.	16ee\LL	.	16gg\LL	.	.	.	.	.	.	.	.	.	.	.	.	.
8c\J	.	8g\J	.	16ee\	.	16gg\	.	8c\	cae-	8e\	cae-	8g\	cae-	8cc\	cae-	8cc\J	.	16ee\L	.
.	.	.	.	16cc\JJ	.	16ee\JJ	.	.	.	.	.	.	.	.	.	.	.	16ff\JJ	.
8B\L	6	8g\L	.	16b\LL	.	16dd\LL	.	8B\	-le-	8d\	-le-	8g\	-le-	8gg\	-le-	8dd\L	.	8gg\L	.
.	.	.	.	16gg\	.	16bb\	.	.	.	.	.	.	.	.	.	.	.	.	.
8G\	.	8b\	.	16gg\	.	16bb\	.	8G\	-ſtis	8B\	-ſtis	8b\	-ſtis	8gg\	-ſtis	8dd\J	.	8gg\J	.
.	.	.	.	16dd\JJ	.	16gg\JJ	.	.	.	.	.	.	.	.	.	.	.	.	.
!	!	!	!	!	!	!	!	!	!	!LO:PB:g=original	!	!	!	!	!	!	!	!LO:LB:g=original	!
8A\	6	8a\	.	16cc\LL	.	16ff\LL	.	8A\	re-	8c\	re-	8a\	re-	8ff\	re-	16cc\LL	.	16ff\LL	.
.	.	.	.	16ff\	.	16aa\	.	.	.	.	.	.	.	.	.	16ff\	.	16aa\	.
8B\J	6	8g\J	.	16ff\	.	16aa\	.	8B\	-gni	8d\	-gni	8g\	-gni	8gg\	-gni	16ee\	.	16gg\	.
.	5	.	.	16dd\JJ	.	16ff\JJ	.	.	.	.	.	.	.	.	.	16dd\JJ	.	16ff\JJ	.
=22	=22	=22	=22	=22	=22	=22	=22	=22	=22	=22	=22	=22	=22	=22	=22	=22	=22	=22	=22
!LO:TX:a:t=P:mixed beam:problem	!	!	!	!	!	!	!	!	!	!	!	!	!	!	!	!LO:TX:a:t=P:mixed beam:problem	!	!	!
8c\L	.	8g\L	.	8cc\L	.	8ee\L	.	8c\	hor-	8e\	hor-	8g\	hor-	8ee\	hor-	8cc\L	.	8ee\L	.
8C/J	.	8g\J	.	8cc\J	.	8cc\J	.	8c\	-tos	8e\	-tos	8g\	-tos	8cc\	-tos,	8e/J	.	8cc\J	.
!	!	!	!LO:DY:a	!	!LO:DY:a	!	!LO:DY:a	!	!	!	!	!	!	!LO:TX:a:t=S&colon;	!	!	!LO:DY:a	!	!
4r	.	(8G'/L	p	8b\L	p	8dd\L	p	4r	.	4r	.	4r	.	8dd\	duc	8g/L	p	8g;</	p
.	.	8G'/J)	.	(16cc\L	.	(16ee\L	.	.	.	.	.	.	.	(16ee\LL	te-	8G/J	.	8r	.
.	.	.	.	16a\JJ)	.	16cc\JJ)	.	.	.	.	.	.	.	16cc\JJ)	.	.	.	.	.
2r	.	(8G'/L	.	8b\L	.	8dd\L	.	2r	.	2r	.	2r	.	8dd\	-cum	8g/L	.	8g;</	.
.	.	8G'/	.	(16cc\L	.	(16ee\L	.	.	.	.	.	.	.	(16ee\LL	pi-	8G/J	.	8r	.
.	.	.	.	16a\JJ)	.	16cc\JJ)	.	.	.	.	.	.	.	16cc\JJ)	.	.	.	.	.
.	.	8G'/	.	8b\L	.	8dd\L	.	.	.	.	.	.	.	8dd\	-as	8g/L	.	8g;</	.
.	.	8G'/J)	.	(16cc\L	.	(16ee\L	.	.	.	.	.	.	.	(16ee\LL	co-	8G/J	.	8r	.
.	.	.	.	16a\JJ)	.	16cc\JJ)	.	.	.	.	.	.	.	16cc\JJ)	.	.	.	.	.
!LO:TX:b:t=Volti Subito	!	!	!	!	!	!	!	!	!	!	!	!	!	!	!	!	!	!	!
!LO:PB:g=original	!	!	!	!	!	!	!	!	!	!	!	!	!	!LO:LB:g=original	!	!	!	!	!
=23	=23	=23	=23	=23	=23	=23	=23	=23	=23	=23	=23	=23	=23	=23	=23	=23	=23	=23	=23
4r	.	8G'/L	.	8b\L	.	8dd\L	.	4r	.	4r	.	4r	.	8dd\	-hor-	8g/L	.	8g;</	.
.	.	8G'/J	.	8b\J	.	8dd\J	.	.	.	.	.	.	.	8g,</	-tes,	8G/J	.	8r	.
!	!	!	!LO:DY:a	!	!LO:DY:a	!	!LO:DY:a	!	!	!	!	!	!	!LO:TX:a:t=T.	!	!	!LO:DY:a	!	!
8c\L	.	8g\L	f	16ee\LL	f	16ee\LL	f	8c\	duc	8c\	duc	8g\	duc	8ee\	duc	8cc\L	f	8ee\L	f
.	.	.	.	16gg\	.	16gg\	.	.	.	.	.	.	.	.	.	.	.	.	.
8B\J	6	8g\J	.	16gg\	.	16gg\	.	8B\	te-	8d\	te-	8g\	te-	8gg\	te-	8dd\J	.	8gg\J	.
.	.	.	.	16dd\JJ	.	16dd\JJ	.	.	.	.	.	.	.	.	.	.	.	.	.
!	!	!LO:LB:g=original	!	!	!	!	!	!	!	!	!	!	!	!	!	!	!	!	!
8A\L	6	8a\L	.	16cc\LL	.	16cc\LL	.	8A\	-cum	8c\	-cum	8a\	-cum	8ff\	-cum	8cc\L	.	8ff\L	.
.	.	.	.	16ff\	.	16ff\	.	.	.	.	.	.	.	.	.	.	.	.	.
8G\	6	8b\	.	16ee\	.	16ee\	.	8G\	pi-	(16B\LL	pi-	8b\	pi-	(16ee\LL	pi-	8ee\	.	16ee\L	.
.	.	.	.	16b\JJ	.	16b\JJ	.	.	.	16c\JJ)	.	.	.	16ff\JJ)	.	.	.	16ff\JJ	.
!	!	!	!	!	!	!	!	!LO:LB:g=original	!	!	!	!	!	!	!	!	!	!	!
!	!	!	!	!LO:TX:a:t=P:mixed beam:problem	!	!LO:TX:a:t=P:mixed beam:problem	!	!	!	!	!	!	!	!	!	!	!	!	!
8F\	6	8a\	.	16a/LL	.	16a/LL	.	8F\	-as	8d\	-as	8a\	-as	8dd\	-as	8dd\	.	16dd\LL	.
.	.	.	.	16aa\	.	16aa\	.	.	.	.	.	.	.	.	.	.	.	16ee\	.
8D\J	7	8a\J	.	16aa\	.	16aa\	.	8D/	co-	8d\	co-	8a\	co-	(16cc\LL	co-	8cc\J	.	16ff\	.
.	.	.	.	16ff\JJ	.	16ff\JJ	.	.	.	.	.	.	.	16dd\JJ)	.	.	.	16ee\JJ	.
!	!	!	!	!LO:LB:g=original	!	!LO:LB:g=original	!	!	!	!	!	!	!	!	!	!LO:LB:g=original	!	!	!
=24	=24	=24	=24	=24	=24	=24	=24	=24	=24	=24	=24	=24	=24	=24	=24	=24	=24	=24	=24
8G\L	.	8g\L	.	16dd\LL	.	16dd\LL	.	8G\	-hor-	8d\	-hor-	8g\	-hor-	8b\	-hor-	8g/L	.	8dd\L	.
.	.	.	.	16gg\	.	16gg\	.	.	.	.	.	.	.	.	.	.	.	.	.
8F\J	4 2	8g\J	.	16gg\	.	16gg\	.	8G,<\	-tes,	8d,<\	-tes,	8g\	-tes	8g,</	-tes,	8g/J	.	8dd\J	.
.	.	.	.	16b\JJ	.	16b\JJ	.	.	.	.	.	.	.	.	.	.	.	.	.
!	!	!	!	!	!	!	!	!	!	!	!	!LO:PB:g=original	!	!	!	!	!	!	!
8E\L	x #	8g#X\L	.	16ee\LL	.	16ee\LL	.	8E\	ad	8e\	ad	8g#X\	ad	8b\	ad	8r	.	8r	.
.	.	.	.	16gg#X\	.	16gg#X\	.	.	.	.	.	.	.	.	.	.	.	.	.
8E\J	.	8g#\J	.	16gg#\	.	16gg#\	.	8E\	cae-	8B\	cae-	8g#\	cae-	8ee\	cae-	8e/	.	8e/	.
.	.	.	.	16b\JJ	.	16b\JJ	.	.	.	.	.	.	.	.	.	.	.	.	.
8A\L	n	8e\L	.	16cc\LL	.	16cc\LL	.	8A\	-le-	8A/	-le-	8e\	-le-	8cc\	-le-	8e/L	.	8e/L	.
.	.	.	.	16ee\	.	16ee\	.	.	.	.	.	.	.	.	.	.	.	.	.
8G#X\	6	8g#X\	.	16ee\	.	16ee\	.	8G#X\	-ſtis	8B\	-ſtis	8g#X\	-ſtis	8ee\	-ſtis	16e/L	.	16e/L	.
.	.	.	.	16b\JJ	.	16b\JJ	.	.	.	.	.	.	.	.	.	16e/JJ	.	16e/JJ	.
!	!	!	!	!	!	!	!	!	!	!LO:PB:g=original	!	!	!	!	!	!	!	!	!
8A\	n	8e\	.	16cc\LL	.	16cc\LL	.	8A\	re-	8A/	re-	8e\	re-	8cc\	re-	16e/LL	.	16e/LL	.
.	.	.	.	16ee\	.	16ee\	.	.	.	.	.	.	.	.	.	16e/	.	16e/	.
8G#X\J	6	8g#X\J	.	16ee\	.	16ee\	.	8G#X\	-gni	8B\	-gni	8g#X\	-gni	8ee\	-gni	16e/	.	16e/	.
.	.	.	.	16b\JJ	.	16b\JJ	.	.	.	.	.	.	.	.	.	16e/JJ	.	16e/JJ	.
=25	=25	=25	=25	=25	=25	=25	=25	=25	=25	=25	=25	=25	=25	=25	=25	=25	=25	=25	=25
8A\L	n	8e\L	.	16cc\LL	.	16cc\LL	.	8A\	hor-	8A/	hor-	8e\	hor-	8cc\	hor-	8e/L	.	8e/L	.
.	.	.	.	16ee\	.	16ee\	.	.	.	.	.	.	.	.	.	.	.	.	.
8E\J	#	8g#X\J	.	16ee\	.	16ee\	.	8E,<\	-tos,	8B,<\	-tos,	8g#X,<\	-tos	8ee\	-tos,	16e/L	.	16e/L	.
.	.	.	.	16b\JJ	.	16b\JJ	.	.	.	.	.	.	.	.	.	16e/JJ	.	16e/JJ	.
8C/L	n5	8e\L	.	16cc\LL	.	16cc\LL	.	8C/	duc	8c\	duc	8e\	duc	8ee\	duc	8e/L	.	8e/L	.
.	.	.	.	16ccc\	.	16ccc\	.	.	.	.	.	.	.	.	.	.	.	.	.
8C/J	.	8gn\J	.	16ccc\	.	16ccc\	.	8C/	te-	8c\	te-	8gn\	te-	8ee\	te-	8c/J	.	8c/J	.
.	.	.	.	16gg\JJ	.	16gg\JJ	.	.	.	.	.	.	.	.	.	.	.	.	.
!	!	!	!	!	!	!	!	!	!	!	!	!	!	!	!	!	!	!LO:LB:g=original	!
8F\L	.	8f\L	.	16aa\LL	.	16aa\LL	.	8F\	-cum	8A/	-cum	8f\	-cum	8cc\	-cum	8c/L	.	8c/L	.
.	.	.	.	16ccc\	.	16ccc\	.	.	.	.	.	.	.	.	.	.	.	.	.
8E\	6	8g\	.	16ccc\	.	16ccc\	.	8E\	pi-	8c\	pi-	8g\	pi-	8ee\	pi-	16c/L	.	16c/L	.
.	.	.	.	16gg\JJ	.	16gg\JJ	.	.	.	.	.	.	.	.	.	16c/JJ	.	16c/JJ	.
8F\	.	8f\	.	16aa\LL	.	16aa\LL	.	8F\	-as	8A/	-as	8f\	-as	8cc\	-as	16c/LL	.	16c/LL	.
.	.	.	.	16ccc\	.	16ccc\	.	.	.	.	.	.	.	.	.	16c/	.	16c/	.
8E\J	6	8g\J	.	16ccc\	.	16ccc\	.	8E\	co-	8c\	co-	8g\	co-	8ee\	co-	16c/	.	16c/	.
.	.	.	.	16gg\JJ	.	16gg\JJ	.	.	.	.	.	.	.	.	.	16c/JJ	.	16c/JJ	.
=26	=26	=26	=26	=26	=26	=26	=26	=26	=26	=26	=26	=26	=26	=26	=26	=26	=26	=26	=26
8F\L	.	8f\L	.	16aa\LL	.	16aa\LL	.	8F\	-hor-	8A/	-hor-	8f\	-hor-	8cc\	-hor-	8c/L	.	8c/L	.
.	.	.	.	16ccc\	.	16ccc\	.	.	.	.	.	.	.	.	.	.	.	.	.
8C\J	.	8g\J	.	16ccc\	.	16ccc\	.	8C/	-tes	8c,<\	-tes,	8g,<\	-tes,	8ee\	-tes,	8c/J	.	8c/J	.
.	.	.	.	16gg\JJ	.	16gg\JJ	.	.	.	.	.	.	.	.	.	.	.	.	.
!	!	!	!	!	!	!	!	!LO:LB:g=original	!	!	!	!	!	!	!	!	!	!	!
8G\L	.	8g\L	.	16gg\LL	.	16gg\LL	.	8G\	ad	8B\	ad	8g\	ad	8dd\	ad	8r	.	8r	.
.	.	.	.	16bb\	.	16bb\	.	.	.	.	.	.	.	.	.	.	.	.	.
8G\J	.	8g\J	.	16bb\	.	16bb\	.	8G\	cae-	8B\	cae-	8g\	cae-	8dd\	cae-	8g/	.	8g/	.
.	.	.	.	16dd\JJ	.	16dd\JJ	.	.	.	.	.	.	.	.	.	.	.	.	.
!	!	!	!	!LO:LB:g=original	!	!	!	!	!	!	!	!LO:PB:g=original	!	!LO:LB:g=original	!	!	!	!	!
8c\L	.	8g\L	.	16ee\LL	.	16ee\LL	.	8c\	-le-	8e\	-le-	8g\	-le-	8cc\	-le-	8g/L	.	8g/L	.
.	.	.	.	16gg\	.	16gg\	.	.	.	.	.	.	.	.	.	.	.	.	.
8B\	6	8b\	.	16gg\	.	16gg\	.	8B\	-ſtis	8d\	-ſtis	8b\	-ſtis	8dd\	-ſtis	16g/L	.	16g/L	.
.	.	.	.	16dd\JJ	.	16dd\JJ	.	.	.	.	.	.	.	.	.	16g/JJ	.	16g/JJ	.
!	!	!	!	!	!	!LO:LB:g=original	!	!	!	!	!	!	!	!	!	!	!	!	!
8c\	.	8g\	.	16ee\LL	.	16ee\LL	.	8c\	re-	8c\	re-	8g\	re-	8ee\	re-	16g/LL	.	16g/LL	.
.	.	.	.	16gg\	.	16gg\	.	.	.	.	.	.	.	.	.	16g/	.	16g/	.
8B\J	6	8b\J	.	16gg\	.	16gg\	.	8B\	-gni	8d\	-gni	8b\	-gni	8dd\	-gni	16g/	.	16g/	.
.	.	.	.	16dd\JJ	.	16dd\JJ	.	.	.	.	.	.	.	.	.	16g/JJ	.	16g/JJ	.
!LO:LB:g=original	!	!	!	!	!	!	!	!	!	!	!	!	!	!	!	!LO:LB:g=original	!	!	!
=27	=27	=27	=27	=27	=27	=27	=27	=27	=27	=27	=27	=27	=27	=27	=27	=27	=27	=27	=27
8c\L	.	8g\L	.	16ee\LL	.	16ee\LL	.	8c\	hor-	8c\	hor-	8g\	hor-	8ee\	hor-	8g/L	.	8g/L	.
.	.	.	.	16gg\	.	16gg\	.	.	.	.	.	.	.	.	.	.	.	.	.
8G\J	.	8g\	.	16gg\	.	16gg\	.	8G,<\	-tos,	8B,<\	-tos,	8g,<\	-tos,	8dd\	-tos,	8g/J	.	8g/J	.
.	.	.	.	16dd\JJ	.	16dd\JJ	.	.	.	.	.	.	.	.	.	.	.	.	.
8c\L	.	8g\	.	16ee\LL	.	16ee\LL	.	8c\	duc	8c\	duc	8g\	duc	8ee\	duc	8cc\L	.	8ee\L	.
.	.	.	.	16gg\	.	16gg\	.	.	.	.	.	.	.	.	.	.	.	.	.
8B\J	6	8g\J	.	16gg\	.	16gg\	.	8B\	te-	8d\	te-	8g\	te-	8gg\	te-	8dd\J	.	8gg\J	.
.	.	.	.	16dd\JJ	.	16dd\JJ	.	.	.	.	.	.	.	.	.	.	.	.	.
!	!	!LO:LB:g=original	!	!	!	!	!	!	!	!LO:PB:g=original	!	!	!	!	!	!	!	!	!
!	!	!	!	!LO:TX:a:t=P:mixed beam:problem	!	!LO:TX:a:t=P:mixed beam:problem	!	!	!	!	!	!	!	!	!	!	!	!	!
8A\L	6	8a\L	.	16a/LL	.	16a/LL	.	8A\	-cum	8c\	-cum	8a\	-cum	8ff\	-cum	8cc\L	.	16ff\LL	.
.	.	.	.	16ff\	.	16ff\	.	.	.	.	.	.	.	.	.	.	.	16gg\	.
8G\	6	8b\	.	16ee\	.	16ee\	.	8G\	pi-	(16B\LL	pi-	8b\	pi-	(16ee\LL	pi-	8ee\	.	16ee\	.
.	.	.	.	16dd\JJ	.	16dd\JJ	.	.	.	16c\JJ)	.	.	.	16ff\JJ)	.	.	.	16ff\JJ	.
!	!	!	!	!LO:TX:a:t=P:mixed beam:problem	!	!LO:TX:a:t=P:mixed beam:problem	!	!	!	!	!	!	!	!	!	!	!	!	!
8F\	6	8a\	.	16a/LL	.	16a/LL	.	8F\	-as	8d\	-as	8a\	-as	(16dd\LL	-as	8dd\	.	16dd\LL	.
.	.	.	.	16aa\	.	16aa\	.	.	.	.	.	.	.	16ee\JJ)	.	.	.	16ee\	.
8D\J	7	8a\J	.	16aa\	.	16aa\	.	8D/	co-	8d\	co-	8a\	co-	(16dd\LL	co-	8cc\J	.	16cc\	.
.	.	.	.	16ff\JJ	.	16ff\JJ	.	.	.	.	.	.	.	16cc\JJ)	.	.	.	16dd\JJ	.
=28	=28	=28	=28	=28	=28	=28	=28	=28	=28	=28	=28	=28	=28	=28	=28	=28	=28	=28	=28
8G\L	.	8g\L	.	16dd\LL	.	16dd\LL	.	8G\	-hor-	8d\	-hor-	8g\	-hor-	8b\	-hor-	8g/L	.	8dd\L	.
.	.	.	.	16gg\	.	16gg\	.	.	.	.	.	.	.	.	.	.	.	.	.
8F\	4 2	8g\	.	16gg\	.	16gg\	.	8F,<\	-tes,	8d,<\	-tes,	8g,<\	-tes,	8g,</	-tes,	8g/J	.	8dd\J	.
.	.	.	.	16b\JJ	.	16b\JJ	.	.	.	.	.	.	.	.	.	.	.	.	.
8E\	6	8g\	.	16cc\LL	.	16cc\LL	.	8E\	duc	8e\	duc	8g\	duc	8cc\	duc	8cc\L	.	8ee\L	.
.	.	.	.	16gg\	.	16gg\	.	.	.	.	.	.	.	.	.	.	.	.	.
8C\J	.	8g\J	.	16gg\	.	16gg\	.	8C/	te-	8e\	te-	8g\	te-	8cc\	te-	8ee\J	.	8gg\J	.
.	.	.	.	16ee\JJ	.	16ee\JJ	.	.	.	.	.	.	.	.	.	.	.	.	.
!	!	!	!	!	!	!	!	!	!	!	!	!	!	!	!	!	!	!LO:LB:g=original	!
!LO:TX:a:t=P:mixed beam:problem	!	!	!	!	!	!	!	!	!	!	!	!	!	!	!	!	!	!	!
8F\L	6_ 5_	8a\L	.	16ff\LL	.	16ff\LL	.	8F\	-cum	8c\	-cum	8f\	-cum	(16a\LL	-cum	16dd\LL	.	16ff\LL	.
.	.	.	.	16aa\	.	16aa\	.	.	.	.	.	.	.	16b\JJ)	.	16ee\	.	16gg\	.
8D\	.	8a\J	.	16aa\	.	16aa\	.	8D/	co-	(16d\LL	co-	8a\	co-	(16cc\LL	co-	16dd\	.	16ff\	.
.	.	.	.	16ff\JJ	.	16ff\JJ	.	.	.	16c\JJ)	.	.	.	16dd\JJ)	.	16cc\JJ	.	16ee\JJ	.
!	!	!	!	!	!	!	!	!LO:LB:g=original	!	!	!	!	!	!	!	!	!	!	!
!	!	!	!	!	!	!	!	!LO:TX:a:t=P:mixed beam:problem	!	!	!	!	!	!	!	!	!	!	!
8G\	5 4	4g\	.	16dd\LL	.	16dd\LL	.	(8G\L	-hor-	(8c\L	-hor-	(8g\L	-hor-	4ddT\	-hor-	16dd\LL	.	16dd\LL	.
.	.	.	.	16gg\	.	16gg\	.	.	.	.	.	.	.	.	.	16ff\	.	16aa\	.
8GG/J	x 3	.	.	16gg\	.	16gg\	.	8GG/J)	.	8B\J)	.	8d\J)	.	.	.	16ee\	.	16gg\	.
.	.	.	.	16dd\JJ	.	16dd\JJ	.	.	.	.	.	.	.	.	.	16dd\JJ	.	16ff\JJ	.
!	!	!	!	!LO:LB:g=original	!	!	!	!	!	!	!	!LO:PB:g=original	!	!	!	!	!	!	!
=29	=29	=29	=29	=29	=29	=29	=29	=29	=29	=29	=29	=29	=29	=29	=29	=29	=29	=29	=29
!LO:TX:a:t=P:mixed beam:problem	!	!	!	!	!	!	!	!	!	!	!	!	!	!	!	!LO:TX:a:t=P:mixed beam:problem	!	!LO:TX:a:t=P:mixed beam:problem	!
8C/L	.	4g\	.	16ee\LL	.	16ee\LL	.	8C,</	-tes,	4c,<\	-tes,	4e\	-tes,	8cc,<\	-tes,	8cc\L	.	8ee\L	.
.	.	.	.	16gg\	.	16gg\	.	.	.	.	.	.	.	.	.	.	.	.	.
8c\	.	.	.	16gg\	.	16gg\	.	8c\	duc	.	.	.	.	8ee\	duc	8g/	.	8g/	.
.	.	.	.	16gg\JJ	.	16gg\JJ	.	.	.	.	.	.	.	.	.	.	.	.	.
8B\	6	8g\L	.	16gg\LL	.	16gg\LL	.	(8B\L	pi-	8G/	duc	8g\	duc	(8dd\L	pi-	8g/	.	8g/	.
.	.	.	.	16gg\	.	16gg\	.	.	.	.	.	.	.	.	.	.	.	.	.
8c\J	.	8g\J	.	16gg\	.	16gg\	.	8c\J)	.	8c\	pi-	8g\	pi-	8cc\J)	.	8g/J	.	8g/J	.
.	.	.	.	16gg\JJ	.	16gg\JJ	.	.	.	.	.	.	.	.	.	.	.	.	.
!	!	!	!	!	!	!LO:LB:g=original	!	!	!	!	!	!	!	!	!	!	!	!	!
!LO:TX:a:t=P:mixed beam:problem	!	!	!	!	!	!	!	!	!	!	!	!	!	!	!	!	!	!	!
8G\L	.	8g\L	.	16bb\LL	.	16bb\LL	.	8G\	-as	8d\	-as	8g\	-as	8b\	-as	8g/L	.	8g/L	.
.	.	.	.	16bb\	.	16bb\	.	.	.	.	.	.	.	.	.	.	.	.	.
8c\	.	8g\J	.	16ccc\	.	16ccc\	.	8c\	co-	8e\	co-	8g\	co-	8cc\	co-	16g/L	.	16g/L	.
.	.	.	.	16ccc\JJ	.	16ccc\JJ	.	.	.	.	.	.	.	.	.	16g/JJ	.	16g/JJ	.
!	!	!	!	!	!	!	!	!LO:TX:a:t=P:mixed beam:problem	!	!	!	!	!	!	!	!	!	!	!
8G\	5 4	4g\	.	16ccc\LL	.	16ccc\LL	.	(8G\L	-hor-	4d\	-hor-	4g\	-hor-	(8cc\L	-hor-	16g/LL	.	16g/LL	.
.	.	.	.	16ccc\	.	16ccc\	.	.	.	.	.	.	.	.	.	16g/	.	16g/	.
8GG/J	x 3	.	.	16bb\	.	16bb\	.	8GG/J)	.	.	.	.	.	8b\J)	.	16g/	.	16g/	.
.	.	.	.	16bb\JJ	.	16bb\JJ	.	.	.	.	.	.	.	.	.	16g/JJ	.	16g/JJ	.
!	!	!	!	!	!	!	!	!	!	!	!	!	!	!	!	!LO:LB:g=original	!	!	!
=30	=30	=30	=30	=30	=30	=30	=30	=30	=30	=30	=30	=30	=30	=30	=30	=30	=30	=30	=30
4C;</	.	4g;\	.	4ccc;\	.	4ccc;\	.	4C;</	-tes.	4e;\	-tes.	4g;\	-tes.	4cc;\	-tes.	4e;</	.	4g;</	.
4r	.	4r	.	4r	.	4r	.	4r	.	4r	.	4r	.	4r	.	4r	.	4r	.
2r	.	2r	.	2r	.	2r	.	2r	.	2r	.	2r	.	2r	.	2r	.	2r	.
==	==	==	==	==	==	==	==	==	==	==	==	==	==	==	==	==	==	==	==
*-	*-	*-	*-	*-	*-	*-	*-	*-	*-	*-	*-	*-	*-	*-	*-	*-	*-	*-	*-
!!!system-decoration: [(s1,s2)][(s3,s4,s5,s6)][(s7,s8,s9,s10)]
!!!RDF**kern: > = above
!!!RDF**kern: < = below
!!!RDF**dynam: p = Piano
!!!RDF**dynam: f = Fortè
!!!EED: Leszek Kubiak
!!!EST: 2020-11-23
!!!AIN: 1 alto 3 empty 1 organ 1 tenor 1 viola 2 violn 1 vox
!!!ENC: Andrzej Borzym
!!!END: 2020-05-06
